report_00007_2020-12-11T15:55:29.892Z/speed-index/comparison/line/7_vs_8.svg

<svg width="640" height="500" xmlns="http://www.w3.org/2000/svg" xmlns:xlink="http://www.w3.org/1999/xlink"><path fill="#fff" d="M0 0h640v500H0z"/><defs><path id="d" stroke-width=".222" stroke="currentColor" d="M-1-1h2v2h-2z"/><path id="b" stroke-width=".222" stroke="currentColor" d="M0-1.33l-1.33 2h2.66z"/><path id="f" stroke-width=".222" stroke="currentColor" d="M0 1.33L1.265.411.782-1.067l-1.564-.009-.483 1.487z"/><use xlink:href="#b" id="c" stroke="currentColor" transform="rotate(180)"/><use xlink:href="#d" id="e" stroke="currentColor" transform="rotate(45)"/><circle id="a" stroke-width=".222" stroke="currentColor" cx="0" cy="0" r="1"/></defs><g fill="none" color="#000" stroke="currentColor"><path stroke="#000" d="M62.2 398.8h9m543.8 0h-9"/><text transform="translate(53.9 402.7)" stroke="none" fill="#000" font-family="Arial" font-size="12" text-anchor="end"><tspan>2400</tspan></text></g><g fill="none" color="#000" stroke="currentColor"><path stroke="#000" d="M62.2 334.3h9m543.8 0h-9"/><text transform="translate(53.9 338.2)" stroke="none" fill="#000" font-family="Arial" font-size="12" text-anchor="end"><tspan>2450</tspan></text></g><g fill="none" color="#000" stroke="currentColor"><path stroke="#000" d="M62.2 269.8h9m543.8 0h-9"/><text transform="translate(53.9 273.7)" stroke="none" fill="#000" font-family="Arial" font-size="12" text-anchor="end"><tspan>2500</tspan></text></g><g fill="none" color="#000" stroke="currentColor"><path stroke="#000" d="M62.2 205.3h9m543.8 0h-9"/><text transform="translate(53.9 209.2)" stroke="none" fill="#000" font-family="Arial" font-size="12" text-anchor="end"><tspan>2550</tspan></text></g><g fill="none" color="#000" stroke="currentColor"><path stroke="#000" d="M62.2 140.8h9m543.8 0h-9"/><text transform="translate(53.9 144.7)" stroke="none" fill="#000" font-family="Arial" font-size="12" text-anchor="end"><tspan>2600</tspan></text></g><g fill="none" color="#000" stroke="currentColor"><path stroke="#000" d="M62.2 76.3h9m543.8 0h-9"/><text transform="translate(53.9 80.2)" stroke="none" fill="#000" font-family="Arial" font-size="12" text-anchor="end"><tspan>2650</tspan></text></g><g fill="none" color="#000" stroke="currentColor"><path stroke="#000" d="M62.2 428v-9m0-400.9v9"/><text transform="translate(62.2 449.9)" stroke="none" fill="#000" font-family="Arial" font-size="12" text-anchor="middle"><tspan>0</tspan></text></g><g fill="none" color="#000" stroke="currentColor"><path stroke="#000" d="M118 428v-9m0-400.9v9"/><text transform="translate(118 449.9)" stroke="none" fill="#000" font-family="Arial" font-size="12" text-anchor="middle"><tspan>10</tspan></text></g><g fill="none" color="#000" stroke="currentColor"><path stroke="#000" d="M173.9 428v-9m0-400.9v9"/><text transform="translate(173.9 449.9)" stroke="none" fill="#000" font-family="Arial" font-size="12" text-anchor="middle"><tspan>20</tspan></text></g><g fill="none" color="#000" stroke="currentColor"><path stroke="#000" d="M229.7 428v-9m0-400.9v9"/><text transform="translate(229.7 449.9)" stroke="none" fill="#000" font-family="Arial" font-size="12" text-anchor="middle"><tspan>30</tspan></text></g><g fill="none" color="#000" stroke="currentColor"><path stroke="#000" d="M285.6 428v-9m0-400.9v9"/><text transform="translate(285.6 449.9)" stroke="none" fill="#000" font-family="Arial" font-size="12" text-anchor="middle"><tspan>40</tspan></text></g><g fill="none" color="#000" stroke="currentColor"><path stroke="#000" d="M341.4 428v-9m0-400.9v9"/><text transform="translate(341.4 449.9)" stroke="none" fill="#000" font-family="Arial" font-size="12" text-anchor="middle"><tspan>50</tspan></text></g><g fill="none" color="#000" stroke="currentColor"><path stroke="#000" d="M397.2 428v-9m0-400.9v9"/><text transform="translate(397.2 449.9)" stroke="none" fill="#000" font-family="Arial" font-size="12" text-anchor="middle"><tspan>60</tspan></text></g><g fill="none" color="#000" stroke="currentColor"><path stroke="#000" d="M453.1 428v-9m0-400.9v9"/><text transform="translate(453.1 449.9)" stroke="none" fill="#000" font-family="Arial" font-size="12" text-anchor="middle"><tspan>70</tspan></text></g><g fill="none" color="#000" stroke="currentColor"><path stroke="#000" d="M508.9 428v-9m0-400.9v9"/><text transform="translate(508.9 449.9)" stroke="none" fill="#000" font-family="Arial" font-size="12" text-anchor="middle"><tspan>80</tspan></text></g><g fill="none" color="#000" stroke="currentColor"><path stroke="#000" d="M564.7 428v-9m0-400.9v9"/><text transform="translate(564.7 449.9)" stroke="none" fill="#000" font-family="Arial" font-size="12" text-anchor="middle"><tspan>90</tspan></text></g><path stroke="#000" d="M62.2 18.1V428H615V18.1H62.2z" fill="none" color="#000"/><text transform="translate(279.8 467.9)" stroke="none" fill="#000" font-family="Arial" font-size="12" text-anchor="end" color="#000"><tspan>pages+cached+noexternal+nosvg</tspan></text><path stroke="#9400D3" d="M288.1 464h42.2M62.2 218l5.6 14.2 5.6-37.3 5.6 8.5 5.5 26.2 5.6-32.2 5.6 17 5.6-37.6 5.6 22 5.6 15.3 5.5-.4 5.6-91.9 5.6-88.7 5.6 195.1 5.6-31.6 5.6 9.5 5.5-12.4 5.6 33.5 5.6-16.1 5.6-159.2 5.6 135.4 5.6 34.1 5.5 8 5.6-13.2 5.6 13.6 5.6-26 5.6-9.4 5.6 19.4 5.5-40.4 5.6 69.8 5.6-28.5 5.6-25.1 5.6 32.4 5.6-1.4 5.6 2.4 5.5-176.2 5.6 2.7 5.6 146.9 5.6 32.9 5.6-25.6 5.6-11 5.5 5.3 5.6-29.7 5.6 25.1 5.6 10.4 5.6-39 5.6 18.9 5.5-5.3 5.6 23.6 5.6-12.4 5.6-159 5.6 170.1 5.6 18 5.5-10.1 5.6 3.6 5.6 12.2 5.6 4.3 5.6-27.6 5.6-11.4 5.5 29.8 5.6-40.6 5.6 25 5.6 17.9 5.6-22.6 5.6 1.4 5.5 24.7 5.6 6.5 5.6-186.5 5.6 163.8 5.6-51.6 5.6 64.8 5.6-15.5 5.5-4.7 5.6-6.6 5.6 33.9 5.6-6.9 5.6 13.8 5.6-39.1 5.5 9 5.6-4 5.6 4.2 5.6 28.2 5.6-60.2 5.6 7.8 5.5 13.1 5.6.5 5.6 15 5.6 14 5.6-14.5 5.6-37.4 5.5 2.8 5.6 50.1 5.6-8.8 5.6-19.3 5.6 9.5 5.6 5.5 5.5-34.9 5.6 35 5.6-3.6 5.6 2.9" fill="none" color="#000"/><text transform="translate(279.8 485.9)" stroke="none" fill="#000" font-family="Arial" font-size="12" text-anchor="end" color="#000"><tspan>pages+cached+noexternal+noimg</tspan></text><path stroke="#009E73" d="M288.1 482h42.2M62.2 195.9l5.6 8.7 5.6 30.4 5.6-47.7L84.5 67l5.6 26 5.6-13.1 5.6 120.6 5.6-93.3 5.6-30.9 5.5 12.4 5.6 95.8 5.6-100.4 5.6-30.3 5.6 124.8L146 65.3l5.5 11.7 5.6 12.2 5.6-17.3 5.6-21.1 5.6 198.3L179.5 89l5.5 156.6 5.6-176.7 5.6 130.3 5.6-114.8 5.6-2.8 5.6 11.2 5.5-20.9 5.6 18.2 5.6-17.3 5.6-16 5.6 120.8 5.6-92.7 5.6 28.6 5.5 68.2 5.6-121.1 5.6.7 5.6 19 5.6 22.5 5.6 125.3 5.5-23.5 5.6 54.7 5.6-182.8 5.6-15.9 5.6 148.7 5.6-104.2 5.5-32.7 5.6 36.8 5.6 114.5 5.6-128.8 5.6 68.6 5.6-100.6 5.5 7.1 5.6 152.1 5.6 198 5.6-336.6 5.6 11.4 5.6 90.8 5.5-93.5 5.6-17.7 5.6-14.4 5.6 160.7 5.6.1 5.6-125.7 5.5 146.7 5.6-164.6 5.6-28.4 5.6 169 5.6-164.5 5.6 23.2 5.6 13.3 5.5 141.4 5.6-28.8 5.6-109.8 5.6 103L486.6 26l5.6 73.4 5.5-28.9 5.6 119.8 5.6-115.9 5.6 20.3 5.6 139.5 5.6-206.9 5.5 206.9 5.6 2.3 5.6-180.2L548 75l5.6 153.9 5.6-49.2 5.5-111.9 5.6 7.8 5.6 141.1 5.6-154 5.6 24.3 5.6-14.4 5.5 113.5 5.6-104.8 5.6 5.3 5.6-4.1" fill="none" color="#000"/><text transform="translate(579.3 467.9)" stroke="none" fill="#000" font-family="Arial" font-size="12" text-anchor="end" color="#000"><tspan>score p10=3387</tspan></text><path stroke="#56B4E9" d="M587.6 464h42.2" fill="none" color="#000"/><g><text transform="translate(579.3 485.9)" stroke="none" fill="#000" font-family="Arial" font-size="12" text-anchor="end" color="#000"><tspan>score median=5800</tspan></text><path stroke="#E69F00" d="M587.6 482h42.2" fill="none" color="#000"/></g><g fill="none" color="#000" stroke="currentColor"><path stroke="#000" d="M62.2 18.1V428H615V18.1H62.2z"/></g></svg>

<?xml version="1.0" encoding="utf-8"  standalone="no"?>
<svg 
 width="640" height="500"
 viewBox="0 0 640 500"
 xmlns="http://www.w3.org/2000/svg"
 xmlns:xlink="http://www.w3.org/1999/xlink"
>

<title>Gnuplot</title>
<desc>Produced by GNUPLOT 5.4 patchlevel 0 </desc>

<g id="gnuplot_canvas">

<rect x="0" y="0" width="640" height="500" fill="#ffffff"/>
<defs>

	<circle id='gpDot' r='0.5' stroke-width='0.5' stroke='currentColor'/>
	<path id='gpPt0' stroke-width='0.222' stroke='currentColor' d='M-1,0 h2 M0,-1 v2'/>
	<path id='gpPt1' stroke-width='0.222' stroke='currentColor' d='M-1,-1 L1,1 M1,-1 L-1,1'/>
	<path id='gpPt2' stroke-width='0.222' stroke='currentColor' d='M-1,0 L1,0 M0,-1 L0,1 M-1,-1 L1,1 M-1,1 L1,-1'/>
	<rect id='gpPt3' stroke-width='0.222' stroke='currentColor' x='-1' y='-1' width='2' height='2'/>
	<rect id='gpPt4' stroke-width='0.222' stroke='currentColor' fill='currentColor' x='-1' y='-1' width='2' height='2'/>
	<circle id='gpPt5' stroke-width='0.222' stroke='currentColor' cx='0' cy='0' r='1'/>
	<use xlink:href='#gpPt5' id='gpPt6' fill='currentColor' stroke='none'/>
	<path id='gpPt7' stroke-width='0.222' stroke='currentColor' d='M0,-1.33 L-1.33,0.67 L1.33,0.67 z'/>
	<use xlink:href='#gpPt7' id='gpPt8' fill='currentColor' stroke='none'/>
	<use xlink:href='#gpPt7' id='gpPt9' stroke='currentColor' transform='rotate(180)'/>
	<use xlink:href='#gpPt9' id='gpPt10' fill='currentColor' stroke='none'/>
	<use xlink:href='#gpPt3' id='gpPt11' stroke='currentColor' transform='rotate(45)'/>
	<use xlink:href='#gpPt11' id='gpPt12' fill='currentColor' stroke='none'/>
	<path id='gpPt13' stroke-width='0.222' stroke='currentColor' d='M0,1.330 L1.265,0.411 L0.782,-1.067 L-0.782,-1.076 L-1.265,0.411 z'/>
	<use xlink:href='#gpPt13' id='gpPt14' fill='currentColor' stroke='none'/>
	<filter id='textbox' filterUnits='objectBoundingBox' x='0' y='0' height='1' width='1'>
	  <feFlood flood-color='#FFFFFF' flood-opacity='1' result='bgnd'/>
	  <feComposite in='SourceGraphic' in2='bgnd' operator='atop'/>
	</filter>
	<filter id='greybox' filterUnits='objectBoundingBox' x='0' y='0' height='1' width='1'>
	  <feFlood flood-color='lightgrey' flood-opacity='1' result='grey'/>
	  <feComposite in='SourceGraphic' in2='grey' operator='atop'/>
	</filter>
</defs>
<g fill="none" color="#FFFFFF" stroke="black" stroke-width="1.00" stroke-linecap="butt" stroke-linejoin="miter">
</g>
<g fill="none" color="black" stroke="currentColor" stroke-width="1.00" stroke-linecap="butt" stroke-linejoin="miter">
	<path stroke='black'  d='M62.2,398.8 L71.2,398.8 M615.0,398.8 L606.0,398.8  '/>	<g transform="translate(53.9,402.7)" stroke="none" fill="black" font-family="Arial" font-size="12.00"  text-anchor="end">
		<text><tspan font-family="Arial" > 2400</tspan></text>
	</g>
</g>
<g fill="none" color="black" stroke="currentColor" stroke-width="1.00" stroke-linecap="butt" stroke-linejoin="miter">
	<path stroke='black'  d='M62.2,334.3 L71.2,334.3 M615.0,334.3 L606.0,334.3  '/>	<g transform="translate(53.9,338.2)" stroke="none" fill="black" font-family="Arial" font-size="12.00"  text-anchor="end">
		<text><tspan font-family="Arial" > 2450</tspan></text>
	</g>
</g>
<g fill="none" color="black" stroke="currentColor" stroke-width="1.00" stroke-linecap="butt" stroke-linejoin="miter">
	<path stroke='black'  d='M62.2,269.8 L71.2,269.8 M615.0,269.8 L606.0,269.8  '/>	<g transform="translate(53.9,273.7)" stroke="none" fill="black" font-family="Arial" font-size="12.00"  text-anchor="end">
		<text><tspan font-family="Arial" > 2500</tspan></text>
	</g>
</g>
<g fill="none" color="black" stroke="currentColor" stroke-width="1.00" stroke-linecap="butt" stroke-linejoin="miter">
	<path stroke='black'  d='M62.2,205.3 L71.2,205.3 M615.0,205.3 L606.0,205.3  '/>	<g transform="translate(53.9,209.2)" stroke="none" fill="black" font-family="Arial" font-size="12.00"  text-anchor="end">
		<text><tspan font-family="Arial" > 2550</tspan></text>
	</g>
</g>
<g fill="none" color="black" stroke="currentColor" stroke-width="1.00" stroke-linecap="butt" stroke-linejoin="miter">
	<path stroke='black'  d='M62.2,140.8 L71.2,140.8 M615.0,140.8 L606.0,140.8  '/>	<g transform="translate(53.9,144.7)" stroke="none" fill="black" font-family="Arial" font-size="12.00"  text-anchor="end">
		<text><tspan font-family="Arial" > 2600</tspan></text>
	</g>
</g>
<g fill="none" color="black" stroke="currentColor" stroke-width="1.00" stroke-linecap="butt" stroke-linejoin="miter">
	<path stroke='black'  d='M62.2,76.3 L71.2,76.3 M615.0,76.3 L606.0,76.3  '/>	<g transform="translate(53.9,80.2)" stroke="none" fill="black" font-family="Arial" font-size="12.00"  text-anchor="end">
		<text><tspan font-family="Arial" > 2650</tspan></text>
	</g>
</g>
<g fill="none" color="black" stroke="currentColor" stroke-width="1.00" stroke-linecap="butt" stroke-linejoin="miter">
	<path stroke='black'  d='M62.2,428.0 L62.2,419.0 M62.2,18.1 L62.2,27.1  '/>	<g transform="translate(62.2,449.9)" stroke="none" fill="black" font-family="Arial" font-size="12.00"  text-anchor="middle">
		<text><tspan font-family="Arial" > 0</tspan></text>
	</g>
</g>
<g fill="none" color="black" stroke="currentColor" stroke-width="1.00" stroke-linecap="butt" stroke-linejoin="miter">
	<path stroke='black'  d='M118.0,428.0 L118.0,419.0 M118.0,18.1 L118.0,27.1  '/>	<g transform="translate(118.0,449.9)" stroke="none" fill="black" font-family="Arial" font-size="12.00"  text-anchor="middle">
		<text><tspan font-family="Arial" > 10</tspan></text>
	</g>
</g>
<g fill="none" color="black" stroke="currentColor" stroke-width="1.00" stroke-linecap="butt" stroke-linejoin="miter">
	<path stroke='black'  d='M173.9,428.0 L173.9,419.0 M173.9,18.1 L173.9,27.1  '/>	<g transform="translate(173.9,449.9)" stroke="none" fill="black" font-family="Arial" font-size="12.00"  text-anchor="middle">
		<text><tspan font-family="Arial" > 20</tspan></text>
	</g>
</g>
<g fill="none" color="black" stroke="currentColor" stroke-width="1.00" stroke-linecap="butt" stroke-linejoin="miter">
	<path stroke='black'  d='M229.7,428.0 L229.7,419.0 M229.7,18.1 L229.7,27.1  '/>	<g transform="translate(229.7,449.9)" stroke="none" fill="black" font-family="Arial" font-size="12.00"  text-anchor="middle">
		<text><tspan font-family="Arial" > 30</tspan></text>
	</g>
</g>
<g fill="none" color="black" stroke="currentColor" stroke-width="1.00" stroke-linecap="butt" stroke-linejoin="miter">
	<path stroke='black'  d='M285.6,428.0 L285.6,419.0 M285.6,18.1 L285.6,27.1  '/>	<g transform="translate(285.6,449.9)" stroke="none" fill="black" font-family="Arial" font-size="12.00"  text-anchor="middle">
		<text><tspan font-family="Arial" > 40</tspan></text>
	</g>
</g>
<g fill="none" color="black" stroke="currentColor" stroke-width="1.00" stroke-linecap="butt" stroke-linejoin="miter">
	<path stroke='black'  d='M341.4,428.0 L341.4,419.0 M341.4,18.1 L341.4,27.1  '/>	<g transform="translate(341.4,449.9)" stroke="none" fill="black" font-family="Arial" font-size="12.00"  text-anchor="middle">
		<text><tspan font-family="Arial" > 50</tspan></text>
	</g>
</g>
<g fill="none" color="black" stroke="currentColor" stroke-width="1.00" stroke-linecap="butt" stroke-linejoin="miter">
	<path stroke='black'  d='M397.2,428.0 L397.2,419.0 M397.2,18.1 L397.2,27.1  '/>	<g transform="translate(397.2,449.9)" stroke="none" fill="black" font-family="Arial" font-size="12.00"  text-anchor="middle">
		<text><tspan font-family="Arial" > 60</tspan></text>
	</g>
</g>
<g fill="none" color="black" stroke="currentColor" stroke-width="1.00" stroke-linecap="butt" stroke-linejoin="miter">
	<path stroke='black'  d='M453.1,428.0 L453.1,419.0 M453.1,18.1 L453.1,27.1  '/>	<g transform="translate(453.1,449.9)" stroke="none" fill="black" font-family="Arial" font-size="12.00"  text-anchor="middle">
		<text><tspan font-family="Arial" > 70</tspan></text>
	</g>
</g>
<g fill="none" color="black" stroke="currentColor" stroke-width="1.00" stroke-linecap="butt" stroke-linejoin="miter">
	<path stroke='black'  d='M508.9,428.0 L508.9,419.0 M508.9,18.1 L508.9,27.1  '/>	<g transform="translate(508.9,449.9)" stroke="none" fill="black" font-family="Arial" font-size="12.00"  text-anchor="middle">
		<text><tspan font-family="Arial" > 80</tspan></text>
	</g>
</g>
<g fill="none" color="black" stroke="currentColor" stroke-width="1.00" stroke-linecap="butt" stroke-linejoin="miter">
	<path stroke='black'  d='M564.7,428.0 L564.7,419.0 M564.7,18.1 L564.7,27.1  '/>	<g transform="translate(564.7,449.9)" stroke="none" fill="black" font-family="Arial" font-size="12.00"  text-anchor="middle">
		<text><tspan font-family="Arial" > 90</tspan></text>
	</g>
</g>
<g fill="none" color="black" stroke="currentColor" stroke-width="1.00" stroke-linecap="butt" stroke-linejoin="miter">
</g>
<g fill="none" color="black" stroke="currentColor" stroke-width="1.00" stroke-linecap="butt" stroke-linejoin="miter">
	<path stroke='black'  d='M62.2,18.1 L62.2,428.0 L615.0,428.0 L615.0,18.1 L62.2,18.1 Z  '/></g>
<g fill="none" color="black" stroke="currentColor" stroke-width="1.00" stroke-linecap="butt" stroke-linejoin="miter">
</g>
	<g id="gnuplot_plot_1" ><title>pages+cached+noexternal+nosvg</title>
<g fill="none" color="black" stroke="currentColor" stroke-width="1.00" stroke-linecap="butt" stroke-linejoin="miter">
	<g transform="translate(279.8,467.9)" stroke="none" fill="black" font-family="Arial" font-size="12.00"  text-anchor="end">
		<text><tspan font-family="Arial" >pages+cached+noexternal+nosvg</tspan></text>
	</g>
</g>
<g fill="none" color="black" stroke="currentColor" stroke-width="1.00" stroke-linecap="butt" stroke-linejoin="miter">
	<path stroke='rgb(148,   0, 211)'  d='M288.1,464.0 L330.3,464.0 M62.2,218.0 L67.8,232.2 L73.4,194.9 L79.0,203.4 L84.5,229.6 L90.1,197.4
		L95.7,214.4 L101.3,176.8 L106.9,198.8 L112.5,214.1 L118.0,213.7 L123.6,121.8 L129.2,33.1 L134.8,228.2
		L140.4,196.6 L146.0,206.1 L151.5,193.7 L157.1,227.2 L162.7,211.1 L168.3,51.9 L173.9,187.3 L179.5,221.4
		L185.0,229.4 L190.6,216.2 L196.2,229.8 L201.8,203.8 L207.4,194.4 L213.0,213.8 L218.5,173.4 L224.1,243.2
		L229.7,214.7 L235.3,189.6 L240.9,222.0 L246.5,220.6 L252.1,223.0 L257.6,46.8 L263.2,49.5 L268.8,196.4
		L274.4,229.3 L280.0,203.7 L285.6,192.7 L291.1,198.0 L296.7,168.3 L302.3,193.4 L307.9,203.8 L313.5,164.8
		L319.1,183.7 L324.6,178.4 L330.2,202.0 L335.8,189.6 L341.4,30.6 L347.0,200.7 L352.6,218.7 L358.1,208.6
		L363.7,212.2 L369.3,224.4 L374.9,228.7 L380.5,201.1 L386.1,189.7 L391.6,219.5 L397.2,178.9 L402.8,203.9
		L408.4,221.8 L414.0,199.2 L419.6,200.6 L425.1,225.3 L430.7,231.8 L436.3,45.3 L441.9,209.1 L447.5,157.5
		L453.1,222.3 L458.7,206.8 L464.2,202.1 L469.8,195.5 L475.4,229.4 L481.0,222.5 L486.6,236.3 L492.2,197.2
		L497.7,206.2 L503.3,202.2 L508.9,206.4 L514.5,234.6 L520.1,174.4 L525.7,182.2 L531.2,195.3 L536.8,195.8
		L542.4,210.8 L548.0,224.8 L553.6,210.3 L559.2,172.9 L564.7,175.7 L570.3,225.8 L575.9,217.0 L581.5,197.7
		L587.1,207.2 L592.7,212.7 L598.2,177.8 L603.8,212.8 L609.4,209.2 L615.0,212.1  '/></g>
	</g>
	<g id="gnuplot_plot_2" ><title>pages+cached+noexternal+noimg</title>
<g fill="none" color="black" stroke="currentColor" stroke-width="1.00" stroke-linecap="butt" stroke-linejoin="miter">
	<g transform="translate(279.8,485.9)" stroke="none" fill="black" font-family="Arial" font-size="12.00"  text-anchor="end">
		<text><tspan font-family="Arial" >pages+cached+noexternal+noimg</tspan></text>
	</g>
</g>
<g fill="none" color="black" stroke="currentColor" stroke-width="1.00" stroke-linecap="butt" stroke-linejoin="miter">
	<path stroke='rgb(  0, 158, 115)'  d='M288.1,482.0 L330.3,482.0 M62.2,195.9 L67.8,204.6 L73.4,235.0 L79.0,187.3 L84.5,67.0 L90.1,93.0
		L95.7,79.9 L101.3,200.5 L106.9,107.2 L112.5,76.3 L118.0,88.7 L123.6,184.5 L129.2,84.1 L134.8,53.8
		L140.4,178.6 L146.0,65.3 L151.5,77.0 L157.1,89.2 L162.7,71.9 L168.3,50.8 L173.9,249.1 L179.5,89.0
		L185.0,245.6 L190.6,68.9 L196.2,199.2 L201.8,84.4 L207.4,81.6 L213.0,92.8 L218.5,71.9 L224.1,90.1
		L229.7,72.8 L235.3,56.8 L240.9,177.6 L246.5,84.9 L252.1,113.5 L257.6,181.7 L263.2,60.6 L268.8,61.3
		L274.4,80.3 L280.0,102.8 L285.6,228.1 L291.1,204.6 L296.7,259.3 L302.3,76.5 L307.9,60.6 L313.5,209.3
		L319.1,105.1 L324.6,72.4 L330.2,109.2 L335.8,223.7 L341.4,94.9 L347.0,163.5 L352.6,62.9 L358.1,70.0
		L363.7,222.1 L369.3,420.1 L374.9,83.5 L380.5,94.9 L386.1,185.7 L391.6,92.2 L397.2,74.5 L402.8,60.1
		L408.4,220.8 L414.0,220.9 L419.6,95.2 L425.1,241.9 L430.7,77.3 L436.3,48.9 L441.9,217.9 L447.5,53.4
		L453.1,76.6 L458.7,89.9 L464.2,231.3 L469.8,202.5 L475.4,92.7 L481.0,195.7 L486.6,26.0 L492.2,99.4
		L497.7,70.5 L503.3,190.3 L508.9,74.4 L514.5,94.7 L520.1,234.2 L525.7,27.3 L531.2,234.2 L536.8,236.5
		L542.4,56.3 L548.0,75.0 L553.6,228.9 L559.2,179.7 L564.7,67.8 L570.3,75.6 L575.9,216.7 L581.5,62.7
		L587.1,87.0 L592.7,72.6 L598.2,186.1 L603.8,81.3 L609.4,86.6 L615.0,82.5  '/></g>
	</g>
	<g id="gnuplot_plot_3" ><title>score p10=3387</title>
<g fill="none" color="black" stroke="currentColor" stroke-width="1.00" stroke-linecap="butt" stroke-linejoin="miter">
	<g transform="translate(579.3,467.9)" stroke="none" fill="black" font-family="Arial" font-size="12.00"  text-anchor="end">
		<text><tspan font-family="Arial" >score p10=3387</tspan></text>
	</g>
</g>
<g fill="none" color="black" stroke="currentColor" stroke-width="1.00" stroke-linecap="butt" stroke-linejoin="miter">
	<path stroke='rgb( 86, 180, 233)'  d='M587.6,464.0 L629.8,464.0  '/></g>
	</g>
	<g id="gnuplot_plot_4" ><title>score median=5800</title>
<g fill="none" color="black" stroke="currentColor" stroke-width="1.00" stroke-linecap="butt" stroke-linejoin="miter">
	<g transform="translate(579.3,485.9)" stroke="none" fill="black" font-family="Arial" font-size="12.00"  text-anchor="end">
		<text><tspan font-family="Arial" >score median=5800</tspan></text>
	</g>
</g>
<g fill="none" color="black" stroke="currentColor" stroke-width="1.00" stroke-linecap="butt" stroke-linejoin="miter">
	<path stroke='rgb(230, 159,   0)'  d='M587.6,482.0 L629.8,482.0  '/></g>
	</g>
<g fill="none" color="#FFFFFF" stroke="rgb(230, 159,   0)" stroke-width="2.00" stroke-linecap="butt" stroke-linejoin="miter">
</g>
<g fill="none" color="black" stroke="currentColor" stroke-width="2.00" stroke-linecap="butt" stroke-linejoin="miter">
</g>
<g fill="none" color="black" stroke="black" stroke-width="1.00" stroke-linecap="butt" stroke-linejoin="miter">
</g>
<g fill="none" color="black" stroke="currentColor" stroke-width="1.00" stroke-linecap="butt" stroke-linejoin="miter">
	<path stroke='black'  d='M62.2,18.1 L62.2,428.0 L615.0,428.0 L615.0,18.1 L62.2,18.1 Z  '/></g>
<g fill="none" color="black" stroke="currentColor" stroke-width="1.00" stroke-linecap="butt" stroke-linejoin="miter">
</g>
</g>
</svg>
